X: 6
T: Jin zhu meimei
L: 1/8
M: 2/4
K: Bb
G2G F [I:setbarnb 1]| 
B B B G | 
FF2G | 
F2F z | 
G B B G | 
B B c f | 
d2d c | 
f2f d | 
c2c c | 
d c d f | 
B2G B | 
F2F2 | 
G B B B | 
c d B G | 
F4- | 
F2z2 |]

@@@ Tune index: 8674
